rospo-dark/small/status/media-playlist-shuffle-rtl-symbolic.svg

<?xml version="1.0" encoding="UTF-8" standalone="no"?>
<svg
   xmlns:dc="http://purl.org/dc/elements/1.1/"
   xmlns:cc="http://creativecommons.org/ns#"
   xmlns:rdf="http://www.w3.org/1999/02/22-rdf-syntax-ns#"
   xmlns:svg="http://www.w3.org/2000/svg"
   xmlns="http://www.w3.org/2000/svg"
   xmlns:sodipodi="http://sodipodi.sourceforge.net/DTD/sodipodi-0.dtd"
   xmlns:inkscape="http://www.inkscape.org/namespaces/inkscape"
   width="22"
   height="22"
   version="1.1"
   id="svg10"
   sodipodi:docname="media-playlist-shuffle-rtl-symbolic.svg"
   inkscape:version="0.92.1 r">
  <metadata
     id="metadata16">
    <rdf:RDF>
      <cc:Work
         rdf:about="">
        <dc:format>image/svg+xml</dc:format>
        <dc:type
           rdf:resource="http://purl.org/dc/dcmitype/StillImage" />
      </cc:Work>
    </rdf:RDF>
  </metadata>
  <defs
     id="defs14" />
  <sodipodi:namedview
     pagecolor="#ffffff"
     bordercolor="#666666"
     borderopacity="1"
     objecttolerance="10"
     gridtolerance="10"
     guidetolerance="10"
     inkscape:pageopacity="0"
     inkscape:pageshadow="2"
     inkscape:window-width="769"
     inkscape:window-height="480"
     id="namedview12"
     showgrid="false"
     inkscape:zoom="10.727273"
     inkscape:cx="11"
     inkscape:cy="11"
     inkscape:window-x="0"
     inkscape:window-y="0"
     inkscape:window-maximized="0"
     inkscape:current-layer="svg10" />
  <g
     id="g827"
     transform="translate(3.5,3)">
    <path
       id="path2"
       d="m 3,13 v -2 h 4 c 0.554,0 1,-0.45 1,-1 V 6 C 8,4.34 9.338,3 11,3 h 4 v 2 h -4 c -0.554,0 -1,0.45 -1,1 v 4 c 0,1.66 -1.338,3 -3,3 z"
       style="fill:#d3dae3"
       inkscape:connector-curvature="0" />
    <path
       id="path4"
       d="M 3,3 V 5 H 6.623 C 6.792,4.2702 7.1462,3.6156 7.625,3.0664 7.4231,3.0238 7.2149,3 7,3 Z m 8.377,8 c -0.169,0.73 -0.523,1.384 -1.002,1.934 C 10.577,12.976 10.785,13 11,13 h 4 v -2 z"
       style="fill:#d3dae3"
       inkscape:connector-curvature="0" />
    <path
       id="path6"
       d="M 4,1 V 7 L 0,4 Z"
       style="fill:#d3dae3"
       inkscape:connector-curvature="0" />
    <path
       id="path8"
       d="m 4,9 v 6 L 0,12 Z"
       style="fill:#d3dae3"
       inkscape:connector-curvature="0" />
  </g>
</svg>

<svg xmlns="http://www.w3.org/2000/svg" width="16" height="16" version="1.1">
 <path style="fill:#5c616c" d="M 3,13 V 11 H 7 C 7.554,11 8,10.55 8,10 V 6 C 8,4.34 9.338,3 11,3 H 15 V 5 H 11 C 10.446,5 10,5.45 10,6 V 10 C 10,11.66 8.662,13 7,13 Z"/>
 <path style="fill:#5c616c" d="M 3,3 V 5 H 6.623 C 6.792,4.2702 7.1462,3.6156 7.625,3.0664 7.4231,3.0238 7.2149,3 7,3 Z M 11.377,11 C 11.208,11.73 10.854,12.384 10.375,12.934 10.577,12.976 10.785,13 11,13 H 15 V 11 Z"/>
 <path style="fill:#5c616c" d="M 4,1 V 7 L 0,4 Z"/>
 <path style="fill:#5c616c" d="M 4,9 V 15 L 0,12 Z"/>
</svg>
